X: 4
T: McGovern's Favourite
R: reel
M: 4/4
L: 1/8
K: Ador
A>AAB GEDE|G2 Bd edBd|ea a2 gedB|A z BG AGED|A>AAB GEDE|G2 Bd edBd|ea a2 gedB|AcBG A2 z2::a>aab agef|gedB G2 (3Bcd|egfa gedB|A z BG AGed|a>aab agef|gedB G2 (3Bcd|ea a2 gedB|AcBG A2 z2:|]


Tune 2430	Setting 15762

